X: 20642
T: The DANCING FIDDLER
C:
%R: reel
B: Elias Howe "The Musician's Companion" 1843 p.63 #2
S: http://imslp.org/wiki/The_Musician's_Companion_(Howe,_Elias)
Z: 2015 John Chambers <jc:trillian.mit.edu>
M: 2/4
L: 1/16
K: F
% - - - - - - - - - - - - - - - - - - - - - - - - -
cB |\
Acfa bagf | edcB AGFE | D^FGA BAGF | E2C2C2 cB |\
Acfa gbag | edcB Acfa | gbag ecde | f2f2f2 :|
|: cB |\
(Ac)(cf) (Bd)(df) | (Ac)(cf) (Bd)(df) | Acfa bagf | efgf edcB |\
(Ac)(cf) (Bd)(df) | (Ac)(cf) (Bd)(df) | AcAF GBGE | F2F2F2 :|
% - - - - - - - - - - - - - - - - - - - - - - - - -

%%sep 1 1 500

